;FLAVOR:UltiGCode
;TIME:10630
;MATERIAL:5833
;MATERIAL2:0
;NOZZLE_DIAMETER:0.400000
;NOZZLE_DIAMETER2:0.400000

;Layer count: 1038
;LAYER:0
M107
G0 F9000 X88.671 Y16.631 Z0.300
;TYPE:SKIRT
G1 F1200 X132.390 Y16.631 E5.24628
G1 X132.390 Y55.321 E9.88908
G1 X88.671 Y55.321 E15.13536
G1 X88.671 Y16.631 E19.77816
G0 F9000 X89.071 Y17.031
G1 F1200 X131.990 Y17.031 E24.92844
G1 X131.990 Y54.921 E29.47524
G1 X89.071 Y54.921 E34.62552
G1 X89.071 Y17.031 E39.17232
G0 F9000 X89.471 Y17.431
G1 F1200 X131.590 Y17.431 E44.22660
G1 X131.590 Y54.521 E48.67740
G1 X89.471 Y54.521 E53.73168
G1 X89.471 Y17.431 E58.18248
G0 F9000 X89.871 Y17.831
G1 F1200 X131.190 Y17.831 E63.14076
G1 X131.190 Y54.121 E67.49556
G1 X89.871 Y54.121 E72.45384
G1 X89.871 Y17.831 E76.80864
G0 F9000 X90.271 Y18.231
G1 F1200 X130.790 Y18.231 E81.67092
G1 X130.790 Y53.721 E85.92972
G1 X90.271 Y53.721 E90.79200
G1 X90.271 Y18.231 E95.05080
G0 F9000 X90.671 Y18.631
G1 F1200 X130.390 Y18.631 E99.81708
G1 X130.390 Y53.321 E103.97988
G1 X90.671 Y53.321 E108.74616
G1 X90.671 Y18.631 E112.90896
G0 F9000 X91.071 Y19.031
G1 F1200 X129.990 Y19.031 E117.57924
G1 X129.990 Y52.921 E121.64604
G1 X91.071 Y52.921 E126.31632
G1 X91.071 Y19.031 E130.38312
G0 F9000 X91.471 Y19.431
G1 F1200 X129.590 Y19.431 E134.95740
G1 X129.590 Y52.521 E138.92820
G1 X91.471 Y52.521 E143.50248
G1 X91.471 Y19.431 E147.47328
G0 F9000 X91.871 Y19.831
G1 F1200 X129.190 Y19.831 E151.95156
G1 X129.190 Y52.121 E155.82636
G1 X91.871 Y52.121 E160.30464
G1 X91.871 Y19.831 E164.17944
G0 F9000 X92.271 Y20.231
G1 F1200 X128.790 Y20.231 E168.56172
G1 X128.790 Y51.721 E172.34052
G1 X92.271 Y51.721 E176.72280
G1 X92.271 Y20.231 E180.50160
G0 F9000 X92.671 Y20.631
G1 F1200 X128.390 Y20.631 E184.78788
G1 X128.390 Y51.321 E188.47068
G1 X92.671 Y51.321 E192.75696
G1 X92.671 Y20.631 E196.43976
G0 F9000 X93.071 Y21.031
G1 F1200 X127.990 Y21.031 E200.63004
G1 X127.990 Y50.921 E204.21684
G1 X93.071 Y50.921 E208.40712
G1 X93.071 Y21.031 E211.99392
G0 F9000 X93.471 Y21.431
G1 F1200 X127.590 Y21.431 E216.08820
G1 X127.590 Y50.521 E219.57900
G1 X93.471 Y50.521 E223.67328
G1 X93.471 Y21.431 E227.16408
G0 F9000 X93.871 Y21.831
G1 F1200 X127.190 Y21.831 E231.16236
G1 X127.190 Y50.121 E234.55716
G1 X93.871 Y50.121 E238.55544
G1 X93.871 Y21.831 E241.95024
G0 F9000 X94.271 Y22.231
G1 F1200 X126.790 Y22.231 E245.85252
G1 X126.790 Y49.721 E249.15132
G1 X94.271 Y49.721 E253.05360
G1 X94.271 Y22.231 E256.35240
G0 F9000 X94.671 Y22.631
G1 F1200 X126.390 Y22.631 E260.15868
G1 X126.390 Y49.321 E263.36148
G1 X94.671 Y49.321 E267.16776
G1 X94.671 Y22.631 E270.37056
G0 F9000 X95.071 Y23.031
G1 F1200 X125.990 Y23.031 E274.08084
G1 X125.990 Y48.921 E277.18764
G1 X95.071 Y48.921 E280.89792
G1 X95.071 Y23.031 E284.00472
G0 F9000 X95.471 Y23.431
G1 F1200 X125.590 Y23.431 E287.61900
G1 X125.590 Y48.521 E290.62980
G1 X95.471 Y48.521 E294.24408
G1 X95.471 Y23.431 E297.25488
G0 F9000 X95.871 Y23.831
G1 F1200 X125.190 Y23.831 E300.77316
G1 X125.190 Y48.121 E303.68796
G1 X95.871 Y48.121 E307.20624
G1 X95.871 Y23.831 E310.12104
G0 F9000 X96.271 Y24.231
G1 F1200 X124.790 Y24.231 E313.54332
G1 X124.790 Y47.721 E316.36212
G1 X96.271 Y47.721 E319.78440
G1 X96.271 Y24.231 E322.60320
G0 F9000 X96.671 Y24.631
G1 F1200 X124.390 Y24.631 E325.92948
G1 X124.390 Y47.321 E328.65228
G1 X96.671 Y47.321 E331.97856
G1 X96.671 Y24.631 E334.70136
G0 F9000 X97.071 Y25.031
G1 F1200 X123.990 Y25.031 E337.93164
G1 X123.990 Y46.921 E340.55844
G1 X97.071 Y46.921 E343.78872
G1 X97.071 Y25.031 E346.41552
G0 F9000 X97.471 Y25.431
G1 F1200 X123.590 Y25.431 E349.54980
G1 X123.590 Y46.521 E352.08060
G1 X97.471 Y46.521 E355.21488
G1 X97.471 Y25.431 E357.74568
G0 F9000 X97.871 Y25.831
G1 F1200 X123.190 Y25.831 E360.78396
G1 X123.190 Y46.121 E363.21876
G1 X97.871 Y46.121 E366.25704
G1 X97.871 Y25.831 E368.69184
G0 F9000 X98.271 Y26.231
G1 F1200 X122.790 Y26.231 E371.63412
G1 X122.790 Y45.721 E373.97292
G1 X98.271 Y45.721 E376.91520
G1 X98.271 Y26.231 E379.25400
G0 F9000 X98.671 Y26.631
G1 F1200 X122.390 Y26.631 E382.10028
G1 X122.390 Y45.321 E384.34308
G1 X98.671 Y45.321 E387.18936
G1 X98.671 Y26.631 E389.43216
G0 F9000 X99.071 Y27.031
G1 F1200 X121.990 Y27.031 E392.18244
G1 X121.990 Y44.921 E394.32924
G1 X99.071 Y44.921 E397.07952
G1 X99.071 Y27.031 E399.22632
G0 F9000 X99.471 Y27.431
G1 F1200 X121.590 Y27.431 E401.88060
G1 X121.590 Y44.521 E403.93140
G1 X99.471 Y44.521 E406.58568
G1 X99.471 Y27.431 E408.63648
G0 F9000 X99.871 Y27.831
G1 F1200 X121.190 Y27.831 E411.19476
G1 X121.190 Y44.121 E413.14956
G1 X99.871 Y44.121 E415.70784
G1 X99.871 Y27.831 E417.66264
G0 F9000 X100.271 Y28.231
G1 F1200 X120.790 Y28.231 E420.12492
G1 X120.790 Y43.721 E421.98372
G1 X100.271 Y43.721 E424.44600
G1 X100.271 Y28.231 E426.30480
G0 F9000 X100.971 Y28.841
G0 X101.471 Y29.431
;TYPE:WALL-INNER
G1 F1200 X119.590 Y29.431 E428.47908
G1 X119.590 Y42.521 E430.04988
G1 X101.471 Y42.521 E432.22416
G1 X101.471 Y29.431 E433.79496
G0 F9000 X101.071 Y29.031
G1 F1200 X119.990 Y29.031 E436.06524
G1 X119.990 Y42.921 E437.73204
G1 X101.071 Y42.921 E440.00232
G1 X101.071 Y29.031 E441.66912
G0 F9000 X100.671 Y28.631
;TYPE:WALL-OUTER
G1 F1200 X120.390 Y28.631 E444.03540
G1 X120.390 Y43.321 E445.79820
G1 X100.671 Y43.321 E448.16448
G1 X100.671 Y28.631 E449.92728
G0 F9000 X101.696 Y29.571
;TYPE:SKIN
G1 F900 X114.505 Y42.380 E452.10104
G0 F9000 X113.939 Y42.380
G1 F900 X101.609 Y30.050 E454.19351
G0 F9000 X101.609 Y30.616
G1 F900 X113.373 Y42.380 E456.18993
G0 F9000 X112.808 Y42.380
G1 F900 X101.609 Y31.181 E458.09046
G0 F9000 X101.609 Y31.747
G1 F900 X112.242 Y42.380 E459.89494
G0 F9000 X111.676 Y42.380
G1 F900 X101.609 Y32.313 E461.60337
G0 F9000 X101.609 Y32.879
G1 F900 X111.111 Y42.380 E463.21582
G0 F9000 X110.545 Y42.380
G1 F900 X101.609 Y33.444 E464.73231
G0 F9000 X101.609 Y34.010
G1 F900 X109.979 Y42.380 E466.15275
G0 F9000 X109.414 Y42.380
G1 F900 X101.609 Y34.576 E467.47722
G0 F9000 X101.609 Y35.141
G1 F900 X108.848 Y42.380 E468.70572
G0 F9000 X108.282 Y42.380
G1 F900 X101.609 Y35.707 E469.83816
G0 F9000 X101.609 Y36.273
G1 F900 X107.717 Y42.380 E470.87464
G0 F9000 X107.151 Y42.380
G1 F900 X101.609 Y36.838 E471.81515
G0 F9000 X101.609 Y37.404
G1 F900 X106.585 Y42.380 E472.65960
G0 F9000 X106.020 Y42.380
G1 F900 X101.609 Y37.970 E473.40809
G0 F9000 X101.609 Y38.535
G1 F900 X105.454 Y42.380 E474.06061
G0 F9000 X104.888 Y42.380
G1 F900 X101.609 Y39.101 E474.61707
G0 F9000 X101.609 Y39.667
G1 F900 X104.322 Y42.380 E475.07748
G0 F9000 X103.757 Y42.380
G1 F900 X101.609 Y40.232 E475.44201
G0 F9000 X101.609 Y40.798
G1 F900 X103.191 Y42.380 E475.71049
G0 F9000 X102.625 Y42.380
G1 F900 X101.609 Y41.364 E475.88291
G0 F9000 X101.609 Y41.930
G1 F900 X102.060 Y42.380 E475.95936
G0 F9000 X102.261 Y29.571
G1 F900 X115.071 Y42.380 E478.13320
G0 F9000 X115.636 Y42.380
G1 F900 X102.827 Y29.571 E480.30696
G0 F9000 X103.393 Y29.571
G1 F900 X116.202 Y42.380 E482.48072
G0 F9000 X116.768 Y42.380
G1 F900 X103.958 Y29.571 E484.65457
G0 F9000 X104.524 Y29.571
G1 F900 X117.333 Y42.380 E486.82833
G0 F9000 X117.899 Y42.380
G1 F900 X105.090 Y29.571 E489.00209
G0 F9000 X105.655 Y29.571
G1 F900 X118.465 Y42.380 E491.17593
G0 F9000 X119.030 Y42.380
G1 F900 X106.221 Y29.571 E493.34969
G0 F9000 X106.787 Y29.571
G1 F900 X119.449 Y42.233 E495.49850
G0 F9000 X119.449 Y41.667
G1 F900 X107.352 Y29.571 E497.55135
G0 F9000 X107.918 Y29.571
G1 F900 X119.449 Y41.101 E499.50814
G0 F9000 X119.449 Y40.536
G1 F900 X108.484 Y29.571 E501.36896
G0 F9000 X109.050 Y29.571
G1 F900 X119.449 Y39.970 E503.13373
G0 F9000 X119.449 Y39.404
G1 F900 X109.615 Y29.571 E504.80253
G0 F9000 X110.181 Y29.571
G1 F900 X119.449 Y38.839 E506.37536
G0 F9000 X119.449 Y38.273
G1 F900 X110.747 Y29.571 E507.85214
G0 F9000 X111.312 Y29.571
G1 F900 X119.449 Y37.707 E509.23295
G0 F9000 X119.449 Y37.142
G1 F900 X111.878 Y29.571 E510.51779
G0 F9000 X112.444 Y29.571
G1 F900 X119.449 Y36.576 E511.70658
G0 F9000 X119.449 Y36.010
G1 F900 X113.009 Y29.571 E512.79940
G0 F9000 X113.575 Y29.571
G1 F900 X119.449 Y35.445 E513.79625
G0 F9000 X119.449 Y34.879
G1 F900 X114.141 Y29.571 E514.69705
G0 F9000 X114.706 Y29.571
G1 F900 X119.449 Y34.313 E515.50187
G0 F9000 X119.449 Y33.748
G1 F900 X115.272 Y29.571 E516.21073
G0 F9000 X115.838 Y29.571
G1 F900 X119.449 Y33.182 E516.82354
G0 F9000 X119.449 Y32.616
G1 F900 X116.403 Y29.571 E517.34038
G0 F9000 X116.969 Y29.571
G1 F900 X119.449 Y32.051 E517.76125
G0 F9000 X119.449 Y31.485
G1 F900 X117.535 Y29.571 E518.08607
G0 F9000 X118.100 Y29.571
G1 F900 X119.449 Y30.919 E518.31491
G0 F9000 X119.449 Y30.353
G1 F900 X118.666 Y29.571 E518.44771
G0 F9000 X119.232 Y29.571
G1 F900 X119.449 Y29.788 E518.48454
;LAYER:1
M106 S63
G0 F9000 X119.593 Y29.428 Z0.360
;TYPE:WALL-INNER
G1 F1800 X119.593 Y42.524 E518.79805
G1 X101.468 Y42.524 E519.23197
G1 X101.468 Y29.428 E519.54548
G1 X119.593 Y29.428 E519.97940
G0 F9000 X119.992 Y29.029
G1 F1800 X119.992 Y42.923 E520.31202
G1 X101.069 Y42.923 E520.76504
G1 X101.069 Y29.029 E521.09766
G1 X119.992 Y29.029 E521.55067
G0 F9000 X120.391 Y28.630
;TYPE:WALL-OUTER
G1 F1320 X120.391 Y43.322 E521.90240
G1 X100.670 Y43.322 E522.37452
G1 X100.670 Y28.630 E522.72625
G1 X120.391 Y28.630 E523.19837
G0 F9000 X119.452 Y29.798
;TYPE:SKIN
G1 F900 X106.866 Y42.383 E523.62447
G0 F9000 X107.430 Y42.383
G1 F900 X119.452 Y30.362 E524.03147
G0 F9000 X119.452 Y30.926
G1 F900 X107.995 Y42.383 E524.41936
G0 F9000 X108.559 Y42.383
G1 F900 X119.452 Y31.491 E524.78814
G0 F9000 X119.452 Y32.055
G1 F900 X109.123 Y42.383 E525.13783
G0 F9000 X109.687 Y42.383
G1 F900 X119.452 Y32.619 E525.46842
G0 F9000 X119.452 Y33.183
G1 F900 X110.252 Y42.383 E525.77989
G0 F9000 X110.816 Y42.383
G1 F900 X119.452 Y33.748 E526.07226
G0 F9000 X119.452 Y34.312
G1 F900 X111.380 Y42.383 E526.34553
G0 F9000 X111.944 Y42.383
G1 F900 X119.452 Y34.876 E526.59971
G0 F9000 X119.452 Y35.440
G1 F900 X112.509 Y42.383 E526.83477
G0 F9000 X113.073 Y42.383
G1 F900 X119.452 Y36.005 E527.05072
G0 F9000 X119.452 Y36.569
G1 F900 X113.637 Y42.383 E527.24758
G0 F9000 X114.201 Y42.383
G1 F900 X119.452 Y37.133 E527.42534
G0 F9000 X119.452 Y37.697
G1 F900 X114.766 Y42.383 E527.58399
G0 F9000 X115.330 Y42.383
G1 F900 X119.452 Y38.262 E527.72353
G0 F9000 X119.452 Y38.826
G1 F900 X115.894 Y42.383 E527.84397
G0 F9000 X116.459 Y42.383
G1 F900 X119.452 Y39.390 E527.94531
G0 F9000 X119.452 Y39.955
G1 F900 X117.023 Y42.383 E528.02753
G0 F9000 X117.587 Y42.383
G1 F900 X119.452 Y40.519 E528.09065
G0 F9000 X119.452 Y41.083
G1 F900 X118.151 Y42.383 E528.13468
G0 F9000 X118.716 Y42.383
G1 F900 X119.452 Y41.647 E528.15960
G0 F9000 X119.452 Y42.212
G1 F900 X119.280 Y42.383 E528.16541
G0 F9000 X119.118 Y29.567
G1 F900 X106.302 Y42.383 E528.59931
G0 F9000 X105.737 Y42.383
G1 F900 X118.554 Y29.567 E529.03323
G0 F9000 X117.989 Y29.567
G1 F900 X105.173 Y42.383 E529.46713
G0 F9000 X104.609 Y42.383
G1 F900 X117.425 Y29.567 E529.90103
G0 F9000 X116.861 Y29.567
G1 F900 X104.045 Y42.383 E530.33493
G0 F9000 X103.480 Y42.383
G1 F900 X116.297 Y29.567 E530.76885
G0 F9000 X115.732 Y29.567
G1 F900 X102.916 Y42.383 E531.20275
G0 F9000 X102.352 Y42.383
G1 F900 X115.168 Y29.567 E531.63666
G0 F9000 X114.604 Y29.567
G1 F900 X101.788 Y42.383 E532.07056
G0 F9000 X101.607 Y42.000
G1 F900 X114.040 Y29.567 E532.49149
G0 F9000 X113.475 Y29.567
G1 F900 X101.607 Y41.436 E532.89332
G0 F9000 X101.607 Y40.872
G1 F900 X112.911 Y29.567 E533.27604
G0 F9000 X112.347 Y29.567
G1 F900 X101.607 Y40.307 E533.63966
G0 F9000 X101.607 Y39.743
G1 F900 X111.782 Y29.567 E533.98417
G0 F9000 X111.218 Y29.567
G1 F900 X101.607 Y39.179 E534.30957
G0 F9000 X101.607 Y38.615
G1 F900 X110.654 Y29.567 E534.61589
G0 F9000 X110.090 Y29.567
G1 F900 X101.607 Y38.050 E534.90309
G0 F9000 X101.607 Y37.486
G1 F900 X109.525 Y29.567 E535.17118
G0 F9000 X108.961 Y29.567
G1 F900 X101.607 Y36.922 E535.42018
G0 F9000 X101.607 Y36.358
G1 F900 X108.397 Y29.567 E535.65008
G0 F9000 X107.833 Y29.567
G1 F900 X101.607 Y35.793 E535.86087
G0 F9000 X101.607 Y35.229
G1 F900 X107.268 Y29.567 E536.05255
G0 F9000 X106.704 Y29.567
G1 F900 X101.607 Y34.665 E536.22513
G0 F9000 X101.607 Y34.100
G1 F900 X106.140 Y29.567 E536.37860
G0 F9000 X105.575 Y29.567
G1 F900 X101.607 Y33.536 E536.51296
G0 F9000 X101.607 Y32.972
G1 F900 X105.011 Y29.567 E536.62822
G0 F9000 X104.447 Y29.567
G1 F900 X101.607 Y32.408 E536.72439
G0 F9000 X101.607 Y31.843
G1 F900 X103.883 Y29.567 E536.80145
G0 F9000 X103.318 Y29.567
G1 F900 X101.607 Y31.279 E536.85939
G0 F9000 X101.607 Y30.715
G1 F900 X102.754 Y29.567 E536.89824
G0 F9000 X102.190 Y29.567
G1 F900 X101.607 Y30.151 E536.91800
;LAYER:2
M106 S127
G0 F9000 X101.468 Y29.428 Z0.420
;TYPE:WALL-INNER
G1 F2400 X119.593 Y29.428 E537.35191
G1 X119.593 Y42.524 E537.66543
G1 X101.468 Y42.524 E538.09934
G1 X101.468 Y29.428 E538.41286
G0 F9000 X101.069 Y29.029
G1 F2400 X119.992 Y29.029 E538.86588
G1 X119.992 Y42.923 E539.19850
G1 X101.069 Y42.923 E539.65151
G1 X101.069 Y29.029 E539.98414
G0 F9000 X100.670 Y28.630
;TYPE:WALL-OUTER
G1 F1500 X120.391 Y28.630 E540.45626
G1 X120.391 Y43.322 E540.80798
G1 X100.670 Y43.322 E541.28010
G1 X100.670 Y28.630 E541.63183
G0 F9000 X101.607 Y29.663
;TYPE:SKIN
G1 F900 X114.327 Y42.383 E542.06248
G0 F9000 X113.763 Y42.383
G1 F900 X101.607 Y30.227 E542.47404
G0 F9000 X101.607 Y30.791
G1 F900 X113.199 Y42.383 E542.86650
G0 F9000 X112.635 Y42.383
G1 F900 X101.607 Y31.355 E543.23987
G0 F9000 X101.607 Y31.920
G1 F900 X112.070 Y42.383 E543.59411
G0 F9000 X111.506 Y42.383
G1 F900 X101.607 Y32.484 E543.92925
G0 F9000 X101.607 Y33.048
G1 F900 X110.942 Y42.383 E544.24530
G0 F9000 X110.377 Y42.383
G1 F900 X101.607 Y33.613 E544.54222
G0 F9000 X101.607 Y34.177
G1 F900 X109.813 Y42.383 E544.82004
G0 F9000 X109.249 Y42.383
G1 F900 X101.607 Y34.741 E545.07877
G0 F9000 X101.607 Y35.305
G1 F900 X108.685 Y42.383 E545.31841
G0 F9000 X108.120 Y42.383
G1 F900 X101.607 Y35.870 E545.53891
G0 F9000 X101.607 Y36.434
G1 F900 X107.556 Y42.383 E545.74032
G0 F9000 X106.992 Y42.383
G1 F900 X101.607 Y36.998 E545.92264
G0 F9000 X101.607 Y37.562
G1 F900 X106.428 Y42.383 E546.08586
G0 F9000 X105.863 Y42.383
G1 F900 X101.607 Y38.127 E546.22995
G0 F9000 X101.607 Y38.691
G1 F900 X105.299 Y42.383 E546.35495
G0 F9000 X104.735 Y42.383
G1 F900 X101.607 Y39.255 E546.46085
G0 F9000 X101.607 Y39.820
G1 F900 X104.170 Y42.383 E546.54763
G0 F9000 X103.606 Y42.383
G1 F900 X101.607 Y40.384 E546.61531
G0 F9000 X101.607 Y40.948
G1 F900 X103.042 Y42.383 E546.66389
G0 F9000 X102.478 Y42.383
G1 F900 X101.607 Y41.512 E546.69338
G0 F9000 X101.607 Y42.077
G1 F900 X101.913 Y42.383 E546.70374
G0 F9000 X102.076 Y29.568
G1 F900 X114.892 Y42.383 E547.13762
G0 F9000 X115.456 Y42.383
G1 F900 X102.640 Y29.568 E547.57151
G0 F9000 X103.205 Y29.568
G1 F900 X116.020 Y42.383 E548.00538
G0 F9000 X116.584 Y42.383
G1 F900 X103.769 Y29.568 E548.43924
G0 F9000 X104.333 Y29.568
G1 F900 X117.149 Y42.383 E548.87313
G0 F9000 X117.713 Y42.383
G1 F900 X104.897 Y29.568 E549.30701
G0 F9000 X105.462 Y29.568
G1 F900 X118.277 Y42.383 E549.74088
G0 F9000 X118.842 Y42.383
G1 F900 X106.026 Y29.568 E550.17477
G0 F9000 X106.590 Y29.568
G1 F900 X119.406 Y42.383 E550.60865
G0 F9000 X119.452 Y41.866
G1 F900 X107.154 Y29.568 E551.02502
G0 F9000 X107.719 Y29.568
G1 F900 X119.452 Y41.302 E551.42227
G0 F9000 X119.452 Y40.737
G1 F900 X108.283 Y29.568 E551.80041
G0 F9000 X108.847 Y29.568
G1 F900 X119.452 Y40.173 E552.15946
G0 F9000 X119.452 Y39.609
G1 F900 X109.412 Y29.568 E552.49939
G0 F9000 X109.976 Y29.568
G1 F900 X119.452 Y39.045 E552.82023
G0 F9000 X119.452 Y38.480
G1 F900 X110.540 Y29.568 E553.12196
G0 F9000 X111.104 Y29.568
G1 F900 X119.452 Y37.916 E553.40459
G0 F9000 X119.452 Y37.352
G1 F900 X111.669 Y29.568 E553.66811
G0 F9000 X112.233 Y29.568
G1 F900 X119.452 Y36.787 E553.91252
G0 F9000 X119.452 Y36.223
G1 F900 X112.797 Y29.568 E554.13783
G0 F9000 X113.361 Y29.568
G1 F900 X119.452 Y35.659 E554.34405
G0 F9000 X119.452 Y35.095
G1 F900 X113.926 Y29.568 E554.53116
G0 F9000 X114.490 Y29.568
G1 F900 X119.452 Y34.530 E554.69915
G0 F9000 X119.452 Y33.966
G1 F900 X115.054 Y29.568 E554.84805
G0 F9000 X115.619 Y29.568
